!!!!SEGMENT: pl-cz--iii-623--001-006_raszek-waclaw--nieszpory-laudate-dominum.krn
!!!cenid: 18xx:1009
!!!COM: Raszek, Wacław
!!!COM-rismID: pe30020314
!!!CDT: <1848->1848
!!!CNT:
!!!OPR: Nieszpory
!!!OTL: Laudate Dominum
!!!OMV: 006
!!!PDT:
!!!AGN: Sacred
!!!SMS-siglum: PL-CZ
!!!SMS-shelfmark: III-623
!!!SMS-shelfwork: 001-006 M
!!!SMS-variant:
!!!SMS-altvar:
!!!NIFC-rismSourceID: 300001052
!!!NIFC-rismChildID: 300001052
!!!NIFC-islandoraID: pl-cz:39506
!!!URL-pdf-islandora: https://repozytorium.nifc.pl/islandora/object/pl-cz%3A39506/datastream/PDF/view
!!!URL-scan: https://polish.musicsources.pl/pl/lokalizacje/galeria/rekopisy/6964/1 @EN{Scan on Polish Music Sources Website} @PL{Skany w portalu Dziedzictwo Muzyki Polskiej w otwartym dostępie}
!!!IIIF:
!!!ONB-nifc: UWAGA: części Nieszporów: Dixit Dominus, Confitebor, Beatus vir, Laudate pueri, In exitu, Laudate Dominum, Iste confessor, Magnificat, Salve Regina. Uwaga: w Canto 1,2 i Tenorze zaburzona kolejność części
!!!AIN: 1 bass 1 cbass 2 clars 1 organ 2 soprn 1 tenor
!!!key: F
**kern	**kern	**kern	**text	**kern	**text	**kern	**text	**kern	**text	**kern	**kern
*part8	*part7	*part6	*part6	*part5	*part5	*part4	*part4	*part3	*part3	*part2	*part1
*staff8	*staff7	*staff6	*staff6	*staff5	*staff5	*staff4	*staff4	*staff3	*staff3	*staff2	*staff1
*>[A,A]	*>[A,A]	*>[A,A]	*>[A,A]	*>[A,A]	*>[A,A]	*>[A,A]	*>[A,A]	*>[A,A]	*>[A,A]	*>[A,A]	*>[A,A]
*>A	*>A	*>A	*>A	*>A	*>A	*>A	*>A	*>A	*>A	*>A	*>A
*I"[Organo]	*I"Baſso.	*I"Baſso.	*	*I"Tenore	*	*I"Canto Secondo	*	*I"Canto Primo	*	*I"Clarinetto Secondo.	*I"Clarinetto Primo
*mI"Organo	*mI"Basso	*mI"Basso	*	*	*	*mI"Soprano II	*	*mI"Soprano I	*	*mI"Clarinetto II in Bb	*mI"Clarinetto I in Bb
*I'[org]	*I'b	*I'B	*	*I'T	*	*I'S 2	*	*I'S 1	*	*I'cl 2 in Bb	*I'cl 1 in Bb
*mI'org	*	*	*	*	*	*	*	*	*	*	*
*Iorgan	*Icbass	*Ibass	*	*Itenor	*	*Isoprn	*	*Isoprn	*	*Iclars	*Iclars
*ICklav	*ICstr	*ICvox	*	*ICvox	*	*ICvox	*	*ICvox	*	*ICww	*ICww
*clefF4	*clefF4	*clefF4	*	*clefC4	*	*clefC1	*	*clefC1	*	*clefG2	*clefG2
*	*	*	*	*mclefGv2	*	*mclefG2	*	*mclefG2	*	*	*
*	*	*	*	*	*	*	*	*	*	*ITrd1c2	*ITrd1c2
*k[b-]	*k[b-]	*k[b-]	*	*k[b-]	*	*k[b-]	*	*k[b-]	*	*k[b-]	*k[b-]
*F:	*F:	*F:	*	*F:	*	*F:	*	*F:	*	*F:	*F:
*M2/2	*M2/2	*M2/2	*	*M2/2	*	*M2/2	*	*M2/2	*	*M2/2	*M2/2
*met(c|)	*met(c|)	*met(c|)	*	*met(c|)	*	*met(c|)	*	*met(c|)	*	*met(c|)	*met(c|)
*mmet(c|)	*mmet(c|)	*mmet(c|)	*	*mmet(c|)	*	*mmet(c|)	*	*mmet(c|)	*	*mmet(c|)	*mmet(c|)
=1	=1	=1	=1	=1	=1	=1	=1	=1	=1	=1	=1
*	*	*2\right	*	*2\right	*	*	*	*2\right	*	*	*
!LO:TX:t=P:problem=zgodnie z RISM "org missing"	!	!	!	!LO:TX:a:i:t=Pslam 116.:note=podkreślone:mod=	!	!LO:TX:a:i:t=Pslam 116.:note=podkreślone:mod=	!	!LO:TX:a:i:t=Pslam 116.:note=podkreślone:mod=	!	!	!
!LO:MO:mod=2FF@	!	!	!	!	!	!	!	!	!	!	!
1ryy	2FF/	2F\	Bo-	2A\	Bo-	2f/	Bo-	2cc\	Bo-	4A/	(8f/L
.	.	.	.	.	.	.	.	.	.	.	8a/)
.	.	.	.	.	.	.	.	.	.	4r	8cc|/
.	.	.	.	.	.	.	.	.	.	.	8cc|/J
!LO:MO:null:mod=4F@	!	!	!	!	!	!	!	!	!	!	!
.	4F\	4F\	-ga	4A\	-ga	4f/	-ga	4cc\	-ga	8A/L	4cc/
.	.	.	.	.	.	.	.	.	.	8c/	.
!LO:MO:null:mod=4A@	!	!	!	!	!	!	!	!	!	!	!
.	4A\	4A\	na-	4A\	na-	4f/	na-	4ff\	na-	8f/	4r
.	.	.	.	.	.	.	.	.	.	8f/J	.
=2	=2	=2	=2	=2	=2	=2	=2	=2	=2	=2	=2
*	*2\right	*	*	*	*	*	*	*	*	*	*
!LO:MO:mod=2B-@	!	!	!	!	!	!	!	!	!	!	!
1ryy	2B-\	2B-\	-sze-	2B-\	-sze-	2f/	-sze-	2dd\	-ſze-	4d/	8f\L
.	.	.	.	.	.	.	.	.	.	.	8b-\
.	.	.	.	.	.	.	.	.	.	4r	8dd\
.	.	.	.	.	.	.	.	.	.	.	8dd\J
!LO:MO:null:mod=2F@	!	!	!	!	!	!	!	!	!	!	!
.	2F\	2F\	-go	2A\	-go	2f/	-go	2cc\	-go	8A/L	4ff\
.	.	.	.	.	.	.	.	.	.	8c/	.
.	.	.	.	.	.	.	.	.	.	8f/	4r
.	.	.	.	.	.	.	.	.	.	8a/J	.
!	!	!	!	!LO:LB:g=original	!	!LO:LB:g=original	!	!LO:LB:g=original	!	!	!
=3	=3	=3	=3	=3	=3	=3	=3	=3	=3	=3	=3
!LO:MO:mod=4F@	!	!	!	!	!	!	!	!	!	!	!
1ryy	4F\	4F\	chwal-	4A\	chwal-	4f/	chwal-	4cc\	chwal-	8A/L	8ff\L
.	.	.	.	.	.	.	.	.	.	8c/	8cc\J
!LO:MO:null:mod=4A@	!	!	!	!	!	!	!	!	!	!	!
.	4A\	4A\	-cie	4c\	-cie	4f/	-cie	4cc\	-cie	8f/	8r
.	.	.	.	.	.	.	.	.	.	8a/J	8cc\
!LO:MO:null:mod=4B-@	!	!	!LO:MO:mod=wszy-	!	!LO:MO:mod=wszy-	!	!LO:MO:mod=wszy-	!	!LO:MO:mod=wszy-	!	!
.	4B-\	4B-\	wszẏs-	4B-\	wſzẏs-	4f/	wſzẏs-	4dd\	wszẏ-	8d/L	8dd\L
.	.	.	.	.	.	.	.	.	.	8f/J	8b-\J
!LO:MO:null:mod=4G@	!	!	!LO:MO:mod=-stkie	!	!LO:MO:mod=-stkie	!	!LO:MO:mod=-stkie	!	!	!	!
.	4G\	4G\	-tkie	4d\	-tkie	4g/	-tkie	4b-\	-stkie	8r	8r
.	.	.	.	.	.	.	.	.	.	8b-\	8dd\
!	!LO:LB:g=original	!	!	!	!	!	!	!	!	!	!
=4	=4	=4	=4	=4	=4	=4	=4	=4	=4	=4	=4
!LO:MO:mod=2E@	!	!	!LO:MO:mod=zie-	!	!LO:MO:mod=zie-	!	!LO:MO:mod=zie-	!	!	!	!
1ryy	2E\	2E\	Zie-	2c\	Zie-	2g/	Zie-	(4cc\	zie-	4.g/	(8cc\L
.	.	.	.	.	.	.	.	.	.	.	8dd\
.	.	.	.	.	.	.	.	4b-\)	.	.	8b-\
.	.	.	.	.	.	.	.	.	.	8c/	8cc\J)
!	!	!	!	!	!	!	!	!	!	!LO:LB:g=original	!LO:LB:g=original
!LO:MO:null:mod=2F@	!	!	!	!	!	!	!	!	!	!LO:SIC:s=(8fL	!LO:SIC:s=(8aL
.	2F\	2F\	-mie	2c\	-mie.	2f/	-mie	2a\	-mie	8f\L	8a\L
.	.	.	.	.	.	.	.	.	.	8a\	8cc\
.	.	.	.	.	.	.	.	.	.	8cc\	8ff\
!	!	!	!	!	!	!	!	!	!	!LO:SIC:s=8ffJ)	!LO:SIC:s=8aaJ)
.	.	.	.	.	.	.	.	.	.	8ff\J	8aa\J
!	!	!LO:LB:g=original	!	!	!	!	!	!	!	!	!
=5	=5	=5	=5	=5	=5	=5	=5	=5	=5	=5	=5
!LO:MO:mod=2C@	!	!	!LO:MO:mod=daj	!	!LO:MO:mod=daj	!	!LO:MO:mod=daj	!	!LO:MO:mod=daj	!	!
1ryy	2C/	2c\	Daẏ	2c\	Daẏ	2e/	Daẏ	2g\	daẏ	4ee\	(8gg\L
.	.	.	.	.	.	.	.	.	.	.	8ee\)
!	!	!	!	!	!	!	!	!	!	!	!LO:SIC:s=8cc|
.	.	.	.	.	.	.	.	.	.	4r	8cc'\
!	!	!	!	!	!	!	!	!	!	!	!LO:SIC:s=8cc|J
.	.	.	.	.	.	.	.	.	.	.	8cc\J
!LO:MO:null:mod=4A@	!	!	!	!	!	!	!	!	!	!	!
.	4A\	4A\	mu	4c\	mu	4e/	mu	4cc\	mu	8cc/L	4cc\
.	.	.	.	.	.	.	.	.	.	8a/	.
!LO:MO:null:mod=4A@	!	!	!	!	!	!	!	!	!	!	!
.	4A\	4A\	cześć	4d\	cześć	4f#X/	cześć	4cc\	cześć	8f#X/	4r
.	.	.	.	.	.	.	.	.	.	8f#/J	.
!	!	!	!	!LO:LB:g=original	!	!LO:LB:g=original	!	!LO:LB:g=original	!	!	!
=6	=6	=6	=6	=6	=6	=6	=6	=6	=6	=6	=6
*	*	*	*	*	*	*2\right	*	*	*	*	*
!LO:MO:mod=4G@	!	!	!	!	!	!	!	!	!	!	!
1ryy	4G\	(4G\	win-	(4d\	win-	2g\	win-	(4bn\	win-	4g/	8gg\L
.	.	.	.	.	.	.	.	.	.	.	8bX\
!LO:MO:null:mod=4A@	!	!	!	!	!	!	!	!	!	!	!
.	4A\	4A\)	.	4c\)	.	.	.	4cc\)	.	4r	8cc\
.	.	.	.	.	.	.	.	.	.	.	8cc\J
!LO:MO:null:mod=4B@	!	!	!	!	!	!	!	!	!	!	!
.	4Bn\	2Bn\	-ną	2Bn\	-ną	2g\	-ną	2dd\	-ną	8g/L	4dd\
.	.	.	.	.	.	.	.	.	.	8f/	.
!LO:MO:null:mod=4G@	!	!	!	!	!	!	!	!	!	!	!
.	4G\	.	.	.	.	.	.	.	.	8f/	4r
.	.	.	.	.	.	.	.	.	.	8d/J	.
=7	=7	=7	=7	=7	=7	=7	=7	=7	=7	=7	=7
!LO:MO:mod=4c@	!	!	!	!	!	!	!	!	!	!	!
1ryy	4c\	4c\	ca-	4c\	ca-	4g\	ca-	4ee\	ca-	4c/	8ee\L
.	.	.	.	.	.	.	.	.	.	.	8cc\J
!LO:MO:null:mod=4E@	!	!	!	!	!	!	!	!	!	!	!
.	4E\	4E\	-łe	4c\	-łe	4g\	-łe	4cc\	-łe	4g/	8r
.	.	.	.	.	.	.	.	.	.	.	8cc\
!LO:MO:null:mod=4F@	!	!	!	!	!	!	!	!	!	!	!
.	4F\	4F\	ludz-	4f\	ludz-	4a\	ludz-	4a\	ludz-	4a/	8ff\L
.	.	.	.	.	.	.	.	.	.	.	8dd\J
!LO:MO:null:mod=4G@	!	!	!	!	!	!	!	!	!	!	!
.	4G\	4G\	-kie	4d\	-kie	4f\	-kie	4bn\	-kie	4f/	8r
.	.	.	.	.	.	.	.	.	.	.	8bX\
!	!LO:LB:g=original	!	!	!	!	!	!	!LO:LB:g=original	!	!	!
=8	=8	=8	=8	=8	=8	=8	=8	=8	=8	=8	=8
!LO:MO:mod=4r@	!	!	!	!	!LO:MO:mod=ple-	!	!LO:MO:mod=ple-	!	!	!	!
1ryy	4r	2GG/	ple-	2Bn\	Ple-	2f/	Ple-	2dd\	ple-	8d/L	(4.gg\
.	.	.	.	.	.	.	.	.	.	8f/	.
!LO:MO:null:mod=4GG@	!	!	!	!	!	!	!	!	!	!	!
.	4GG/	.	.	.	.	.	.	.	.	8g/	.
.	.	.	.	.	.	.	.	.	.	8f/J	16ff\LL
.	.	.	.	.	.	.	.	.	.	.	16dd\JJ)
!LO:MO:null:mod=4C@	!	!	!LO:MO:mod=-mię	!	!LO:MO:mod=-mię	!	!LO:MO:mod=-mię	!	!LO:MO:mod=-mię	!	!LO:SIC:v:s=4cc
.	4C/	4C/	-mie	4c\	-mie	4e/	-mie	4cc\	-mie	4e/	4b-\
!LO:MO:null:mod=4CC@	!	!	!	!	!	!	!	!	!	!	!
.	4CC/	4r	.	4r	.	4r	.	4r	.	4r	4r
!	!	!LO:LB:g=original	!	!LO:LB:g=original	!	!LO:LB:g=original	!	!	!	!LO:LB:g=original	!LO:PB:g=original
=9	=9	=9	=9	=9	=9	=9	=9	=9	=9	=9	=9
!LO:MO:mod=4DD@	!	!	!	!	!	!	!	!	!	!	!
1ryy	4DD/	2D\	bo	2A\	bo	2f#X/	bo	2dd\	bo	8r	8r
.	.	.	.	.	.	.	.	.	.	8dd\L	8ff#X\L
!LO:MO:null:mod=4D@	!	!	!	!	!	!	!	!	!	!	!
.	4D\	.	.	.	.	.	.	.	.	8dd\	8ff#\
.	.	.	.	.	.	.	.	.	.	8dd\J	8ff#\J
*	*	*	*	*	*	*	*	*	*	*2\right	*
!LO:MO:null:mod=4E@	!	!	!	!	!	!	!	!	!	!	!
.	4E\	4E\	li-	4d\	li-	4g/	li-	4dd\	li-	2dd\	8gg\L
.	.	.	.	.	.	.	.	.	.	.	8gg\
!LO:MO:null:mod=4F#@	!	!	!	!	!	!	!	!	!	!	!
.	4F#X\	4F#X\	-tość	4d\	-tość	4a/	-tość	4cc\	-tość	.	8aa\
.	.	.	.	.	.	.	.	.	.	.	8aa\J
=10	=10	=10	=10	=10	=10	=10	=10	=10	=10	=10	=10
!LO:MO:mod=4G@	!	!	!LO:MO:mod=Je-	!	!LO:MO:mod=Je-	!	!LO:MO:mod=Je-	!	!LO:MO:mod=Je-	!	!LO:SIC:s=4bb-
1ryy	4G\	(4G\	ie-	(4d\	ie-	(4g\	ie-	(4b-\	ie-	2dd\	(4bb-\
!LO:MO:null:mod=4A@	!	!	!	!	!	!	!	!	!	!	!LO:SIC:s=8aaL
.	4A\	4A\)	.	4c\)	.	4a\)	.	4cc\)	.	.	8aa\L)
.	.	.	.	.	.	.	.	.	.	.	8aa\J
!LO:MO:null:mod=4B-@	!	!	!	!	!	!	!	!	!	!	!
.	4B-\	4B-\	-go	4B-\	-go	(4g\	-go	2dd\	-go	4dd\	8gg\L
.	.	.	.	.	.	.	.	.	.	.	8gg\
!LO:MO:null:mod=4BB-@	!	!	!	!	!	!	!	!	!	!	!
.	4BB-/	4r	.	4r	.	4f\)	.	.	.	4dd\	8ff\
.	.	.	.	.	.	.	.	.	.	.	8ff\J
=11	=11	=11	=11	=11	=11	=11	=11	=11	=11	=11	=11
!LO:MO:mod=4C@	!	!	!	!	!	!	!	!	!	!	!
1ryy	4C/	4C/	nad	4G/	nad	4e/	nad	4cc\	nad	8r	8ee\L
.	.	.	.	.	.	.	.	.	.	8cc\L	8cc\
!LO:MO:null:mod=4C@	!	!	!	!	!	!	!	!	!	!	!
.	4C/	4C/	na-	4G/	na-	4e/	na-	4cc\	na-	8cc\	8ee\
.	.	.	.	.	.	.	.	.	.	8cc\J	8ee\J
!LO:MO:null:mod=4D@	!	!	!	!	!	!	!	!	!	!	!
.	4D/	4D/	-mi	4c/	-mi	4f/	-mi	4cc\	-mi	2cc\	8ff\L
.	.	.	.	.	.	.	.	.	.	.	8ff\
!LO:MO:null:mod=4E@	!	!	!	!	!	!	!	!	!	!	!
.	4E/	4E/	stwier-	4c/	stwier-	4g/	stwier-	4b-\	stwier-	.	8gg\
.	.	.	.	.	.	.	.	.	.	.	8gg\J
!	!	!	!	!LO:LB:g=original	!	!LO:LB:g=original	!	!LO:LB:g=original	!	!	!LO:LB:g=original
=12	=12	=12	=12	=12	=12	=12	=12	=12	=12	=12	=12
!LO:MO:mod=4F@	!	!	!	!	!	!	!	!	!	!	!
1ryy	4F\	(4F\	-dzo-	(4c\	-dzo-	2f/	-dzo-	(4a\	-dzo-	4cc\	(8.aa\L
.	.	.	.	.	.	.	.	.	.	.	32bb-\LL
.	.	.	.	.	.	.	.	.	.	.	32aa\JJJ)
!LO:MO:null:mod=4G@	!	!	!	!	!	!	!	!	!	!	!
.	4G\	4G\)	.	4B-\)	.	.	.	4b-\)	.	4b-\	8gg\L
.	.	.	.	.	.	.	.	.	.	.	8gg\J
!LO:MO:null:mod=4A@	!	!	!	!	!	!	!	!	!	!	!
.	4A\	2A\	-na	2A\	-na	2f/	-na	2cc\	-na	2cc\	8ff\L
.	.	.	.	.	.	.	.	.	.	.	8ff\
!LO:MO:null:mod=4AA@	!	!	!	!	!	!	!	!	!	!	!
.	4AA/	.	.	.	.	.	.	.	.	.	8ee\
.	.	.	.	.	.	.	.	.	.	.	8ee\J
!	!	!LO:LB:g=original	!	!	!	!	!	!	!	!	!
=13	=13	=13	=13	=13	=13	=13	=13	=13	=13	=13	=13
!LO:MO:mod=4BB-@	!	!	!LO:MO:mod=a	!	!LO:MO:mod=a	!	!LO:MO:mod=a	!	!LO:MO:mod=a	!	!
1ryy	4BB-/	2B-\	A	2B-\	A	2f/	A	2dd\	A	4f/	8dd\L
.	.	.	.	.	.	.	.	.	.	.	8b-\
!LO:MO:null:mod=4D@	!	!	!	!	!	!	!	!	!	!	!
.	4D/	.	.	.	.	.	.	.	.	4r	8dd\
.	.	.	.	.	.	.	.	.	.	.	8dd\J
!LO:MO:null:mod=4F@	!	!	!	!	!	!	!	!	!	!	!
.	4F/	4B-\	pra-	4B-\	pra-	4f/	pra-	4dd\	praw-	8f/L	4dd\
.	.	.	.	.	.	.	.	.	.	8d/	.
!LO:MO:null:mod=4B-@	!	!	!	!	!	!	!	!	!	!	!
.	4B-/	4BB-/	-wda	4B-\	-wda	4b-/	-wda	4dd\	-da	8f/	4r
.	.	.	.	.	.	.	.	.	.	8f/J	.
!	!LO:LB:g=original	!	!	!	!	!	!	!	!	!LO:PB:g=original	!
=14	=14	=14	=14	=14	=14	=14	=14	=14	=14	=14	=14
!LO:MO:mod=2C@	!	!	!	!	!	!	!	!	!	!	!
1ryy	2C/	2C/	Pań-	2B-\	Pań-	2g\	Pań-	2ee\	pań-	8b-\L	8ee\L
.	.	.	.	.	.	.	.	.	.	8g\	8gg\
.	.	.	.	.	.	.	.	.	.	8b-\	8bb-\
.	.	.	.	.	.	.	.	.	.	8b-\J	8ee\J
!LO:MO:null:mod=2D@	!	!	!	!	!	!	!	!	!	!	!
.	2D/	2D/	-ska	2A\	-ska	2f\	-ska	2ff\	-ska	8a/L	8ff\L
.	.	.	.	.	.	.	.	.	.	8f/	8ff\
.	.	.	.	.	.	.	.	.	.	8a/	8aa\
.	.	.	.	.	.	.	.	.	.	8a/J	8ff\J
!	!	!	!	!LO:LB:g=original	!	!LO:LB:g=original	!	!	!	!	!LO:LB:g=original
=15	=15	=15	=15	=15	=15	=15	=15	=15	=15	=15	=15
!LO:MO:mod=4BB-@	!	!	!	!	!	!	!	!	!	!	!
1ryy	4BB-/	4BB-/	wie-	4B-\	wie-	4f/	wie-	4dd\	wie-	8b-\L	8dd\L
.	.	.	.	.	.	.	.	.	.	8dd\J	8ff\J
!LO:MO:null:mod=4BB-@	!	!	!	!	!	!	!	!	!	!	!
.	4BB-/	4B-\	-cznie	4d\	-cznie	4g/	-cznie	4b-\	-cznie	8r	8r
.	.	.	.	.	.	.	.	.	.	8gg\	8bb-\
!LO:MO:null:mod=4C@	!	!	!	!	!	!	!	!LO:LB:g=original	!	!	!
.	4C/	4c\	u-	4c\	u-	4f/	u-	4a\	u-	8ff\L	8aa\L
.	.	.	.	.	.	.	.	.	.	8aa\J	8ccc\J
!LO:MO:null:mod=4CC@	!	!	!	!	!	!	!	!	!	!	!
.	4CC/	4C/	-isz-	4B-\	-isz-	4e/	-isz-	4g\	-isz-	8r	8r
.	.	.	.	.	.	.	.	.	.	8g/	8ee\
=16	=16	=16	=16	=16	=16	=16	=16	=16	=16	=16	=16
*	*	*	*	*	*	*	*	*	*	*	*2\right
!LO:MO:mod=2CC@	!LO:SIC:s=2CC	!	!	!	!	!	!	!	!	!	!
1ryy	(2CC/	2C/	-czo-	2B-\	-czo-	2e/	-czo-	2g/	-czo-	(2b-\	(2gg\
!LO:MO:null:mod=4FF@	!LO:SIC:s=4FF	!	!LO:MO:mod=-na.	!	!LO:MO:mod=-na.	!	!LO:MO:mod=-na.	!	!	!	!
.	4FF/)	4FF/	-na	4A\	-na	4f/	-na	4f/	-na.	4a\)	4ff\)
!LO:MO:null:mod=4r@	!LO:TX:a:i:t=D Capo:mod=	!	!	!	!	!	!	!LO:TX:a:i:t=Da Capo.:mod=	!	!LO:TX:a:i:t=Da\nCapo.:mod=	!LO:TX:a:i:t=Da Capo.:mod=
.	4r	4r	.	4r	.	4r	.	4r	.	4r	4r
!!LO:TX:a:i:t= :mod=Da Capo
==	==	==	==	==	==	==	==	==	==	==	==
*-	*-	*-	*-	*-	*-	*-	*-	*-	*-	*-	*-
!!!system-decoration: [(s1,s2)][(s3,s4,s5,s6)][(s7)]<s8>
!!!RDF**kern: > = above
!!!RDF**kern: < = below
!!!RDF**kern: | = vertical stroke
!!LO:MO:mod
!! !!!RDF**kern: @ = marked note, color=grey
!!LO:MO:end
!!!ENC: Mateusz Solarz
!!!END: 2020-10-01
!!!ENC: Andrzej Kubiczek
!!!END: 2021-11-19
!!!ENC-modern: Andrzej Kubiczek
!!!END-modern: 2022-11-26
!!!filter-modern: shed -e "s/^(\d+[\/\\]right)/$1yy/I" | shed -e "s/TX(.*):t=P:/tx$1:t=P:/LG" | shed -k -e "s/([^a-gA-Gn#X-])[<>]/$1/g" | sic -sq | modori -m | autostem -r | tie -s | humtr -p | shed -e "s/yy//"
!!!YEC: Copyright 2022 Narodowy Instytut Fryderyka Chopina (https://polishscores.org)
!!!YEM: License CC-BY-4.0 (https://creativecommons.org/licenses/by/4.0)
